X:6
T:Bourree en V
T:Bourree droite d'Issoudun
Z:Jack Campin, 2014
F:http://www.campin.me.uk/Music/YoupNannetteD.abc
S:p16, p1000205.jpg
M:3/8
L:1/16
Q:1/4=120
K:G
BA|G2G2A2|B2G2Bc|d2d2c2|A4\
BA|G2G2A2|B2G2Bc|d2d2c2|A4:|
Bc|d2d2c2|B2G2AB|c2c2B2|A4\
Bc|d2d2c2|B2G2AB|c2A2F2|G4:|

